icons/thermometer_fill.svg

<svg width="48" height="48" viewBox="0 0 48 48" fill="none" xmlns="http://www.w3.org/2000/svg">
<path fill-rule="evenodd" clip-rule="evenodd" d="M18.9829 29.739L18.9814 27.9604L18.9763 21.7487L18.9662 9.3415C18.9638 6.38283 21.2004 3.98253 23.9618 3.98026C26.7232 3.978 28.9638 6.37464 28.9662 9.33331L28.9763 21.7405L28.9814 27.9527L28.9829 29.7308C30.813 31.1954 31.9859 33.4473 31.988 35.9737C31.9916 40.392 28.4128 43.9766 23.9945 43.9803C19.5763 43.9839 15.9916 40.4051 15.988 35.9868C15.9859 33.4604 17.1552 31.2066 18.9829 29.739ZM22.9584 21.4023C24.1541 21.7114 25.5195 22.0644 26.9766 22.0388L26.9749 19.9538L24.9749 19.9554C24.4226 19.9558 23.9745 19.5085 23.9741 18.9562C23.9736 18.4039 24.421 17.9558 24.9732 17.9554L26.9732 17.9538L26.9716 15.9538L24.9716 15.9554C24.4193 15.9558 23.9712 15.5085 23.9708 14.9562C23.9703 14.4039 24.4177 13.9558 24.97 13.9554L26.97 13.9538L26.9683 11.9538L24.9683 11.9554C24.416 11.9558 23.968 11.5085 23.9675 10.9562C23.9671 10.4039 24.4144 9.95585 24.9667 9.9554L26.9667 9.95376L26.9662 9.33495C26.9647 7.55975 25.6204 6.12176 23.9635 6.12312C22.3067 6.12448 20.9647 7.56466 20.9662 9.33986L20.9757 20.9813C21.5615 21.0412 22.2283 21.2136 22.9584 21.4023Z" fill="black"/>
</svg>

<svg
  xmlns="http://www.w3.org/2000/svg"
  width="24"
  height="24"
  viewBox="0 0 24 24"
  fill="none"
  stroke="currentColor"
  stroke-width="2"
  stroke-linecap="round"
  stroke-linejoin="round"
>
  <path
    fill-rule="evenodd"
    d="m18.983 29.739-.002-1.779-.005-6.211-.01-12.407c-.002-2.96 2.234-5.36 4.996-5.362 2.761-.002 5.002 2.395 5.004 5.353l.01 12.408.005 6.212.002 1.778a8 8 0 1 1-10 .008m3.975-8.337c1.196.31 2.562.662 4.019.637l-.002-2.085-2 .001a1 1 0 0 1-.002-2l2-.001-.001-2-2 .001a1 1 0 1 1-.002-2l2-.001-.002-2-2 .001a1 1 0 0 1-.001-2l2-.001v-.62c-.002-1.774-1.347-3.212-3.003-3.21-1.657 0-3 1.44-2.998 3.216l.01 11.641c.585.06 1.252.233 1.982.421"
    clip-rule="evenodd"
  />
</svg>
